source/images/honey-pot-gray.svg

<svg width="26" height="26" fill="none" xmlns="http://www.w3.org/2000/svg"><path fill-rule="evenodd" clip-rule="evenodd" d="m20 12-1.75 3h-3.5L13 12l.508-.805L12 11l-3-1-5 1-2-1v11.125A4.874 4.874 0 0 0 6.875 26h12.25A4.874 4.874 0 0 0 24 21.125V10l-2.5 1h-2.084L20 12ZM6 16l1.75 3h3.5L13 16l-1.75-3h-3.5L6 16Zm8.75 7h3.5L20 20l-1.75-3h-3.5L13 20l1.75 3Z" fill="#5E5E5E"/><path d="M22 1H4c-.551 0-1 .449-1 1v3c0 .551.449 1 1 1h18c.551 0 1-.449 1-1V2c0-.551-.449-1-1-1Zm3 9s-4.682 2.278-8 0c-2.727 1.253-5.237 1.414-8 0-3.945 2.278-8 0-8 0l2-4h20l2 4Z" stroke="#5E5E5E" stroke-width="2" stroke-miterlimit="10" stroke-linecap="round" stroke-linejoin="round"/></svg>

<svg width="26" height="26" viewBox="0 0 26 26" fill="none" xmlns="http://www.w3.org/2000/svg">
<path fill-rule="evenodd" clip-rule="evenodd" d="M20 12L18.25 15H14.75L13 12L13.508 11.195L12 11L9 10L4 11L2 10V21.125C2 23.818 4.182 26 6.875 26H19.125C21.818 26 24 23.818 24 21.125V10L21.5 11H19.4165L20 12ZM6 16L7.75 19H11.25L13 16L11.25 13H7.75L6 16ZM14.75 23H18.25L20 20L18.25 17H14.75L13 20L14.75 23Z" fill="#5E5E5E"/>
<path d="M22 1H4C3.449 1 3 1.449 3 2V5C3 5.551 3.449 6 4 6H22C22.551 6 23 5.551 23 5V2C23 1.449 22.551 1 22 1ZM25 10C25 10 20.318 12.278 17 10C14.273 11.253 11.763 11.414 9 10C5.055 12.278 1 10 1 10L3 6H23L25 10Z" stroke="#5E5E5E" stroke-width="2" stroke-miterlimit="10" stroke-linecap="round" stroke-linejoin="round"/>
</svg>
